X: 5135
T: Bridie's Joy
R: reel
M: 4/4
K: Dmajor
|:D2FA dAFA|G2 GF GFEF|D2FA dAFA|1 (3Bcd eg fd d2:|2 (3Bcd eg fd de||
f2 fg fedA|(3Bcd Ad BdAd|f2 fg fedA|(3Bcd eg fdde|
f2 fg fedA|(3Bcd Ad BdAd|(3Bcd ef g2 ge|a2 ag fd d2||

